img/svg_icons/home.svg

<svg width="13" height="15" viewBox="0 0 13 15" fill="none" xmlns="http://www.w3.org/2000/svg">
<path fill-rule="evenodd" clip-rule="evenodd" d="M7.34562 0.149023C7.12259 -0.0496741 6.78605 -0.0496746 6.56302 0.149023L1.33765 4.80434C0.782475 5.29895 0.849728 6.08517 1.29755 6.52796V13.5538C1.29755 13.8787 1.56091 14.1421 1.88578 14.1421H12.0282C12.353 14.1421 12.6164 13.8787 12.6164 13.5538V6.52268C13.0469 6.09153 13.12 5.34104 12.6165 4.84691V3.22629C12.6165 2.75745 12.2365 2.37738 11.7676 2.37738C11.2988 2.37738 10.9187 2.75745 10.9187 3.22629V3.3323L7.34562 0.149023ZM10.9184 8.25976H8.65458V12.3774H10.9184V8.25976Z" fill="#DADADA"/>
</svg>

<svg width="13" height="15" fill="none" xmlns="http://www.w3.org/2000/svg"><path fill-rule="evenodd" clip-rule="evenodd" d="M7.346.149a.588.588 0 00-.783 0L1.338 4.804C.782 5.3.85 6.085 1.298 6.528v7.026c0 .325.263.588.588.588h10.142a.588.588 0 00.588-.588V6.523c.43-.431.504-1.182 0-1.676v-1.62a.849.849 0 10-1.697 0v.105L7.346.15zm3.572 8.11H8.655v4.118h2.263V8.26z" fill="#DADADA"/></svg>
